storage/app/icons/phosphoricons/regular/battery-warning.svg

<svg xmlns="http://www.w3.org/2000/svg" fill="currentColor" viewBox="0 0 256 256"><path d="M256 96v64a8 8 0 0 1-16 0V96a8 8 0 0 1 16 0m-32-16v96a24 24 0 0 1-24 24H32a24 24 0 0 1-24-24V80a24 24 0 0 1 24-24h168a24 24 0 0 1 24 24m-16 0a8 8 0 0 0-8-8H32a8 8 0 0 0-8 8v96a8 8 0 0 0 8 8h168a8 8 0 0 0 8-8Zm-92 52a8 8 0 0 0 8-8V96a8 8 0 0 0-16 0v28a8 8 0 0 0 8 8m0 12a12 12 0 1 0 12 12 12 12 0 0 0-12-12"/></svg>

<svg xmlns="http://www.w3.org/2000/svg" viewBox="0 0 256 256" fill="currentColor"><path d="M256,96v64a8,8,0,0,1-16,0V96a8,8,0,0,1,16,0ZM224,80v96a24,24,0,0,1-24,24H32A24,24,0,0,1,8,176V80A24,24,0,0,1,32,56H200A24,24,0,0,1,224,80Zm-16,0a8,8,0,0,0-8-8H32a8,8,0,0,0-8,8v96a8,8,0,0,0,8,8H200a8,8,0,0,0,8-8Zm-92,52a8,8,0,0,0,8-8V96a8,8,0,0,0-16,0v28A8,8,0,0,0,116,132Zm0,12a12,12,0,1,0,12,12A12,12,0,0,0,116,144Z"/></svg>
